packages/icons/svg/24/PencilLive.svg

<svg width="24" height="24" viewBox="0 0 24 24" fill="none" xmlns="http://www.w3.org/2000/svg">
<path fill-rule="evenodd" clip-rule="evenodd" d="M3.67305 18.1228L4.43954 14.2904L11.6874 7.04251L15.93 11.2851L14.6057 12.6095C15.3168 12.2209 16.1326 12 17 12C19.7615 12 22 14.2386 22 17C22 19.7614 19.7615 22 17 22C14.2386 22 12 19.7614 12 17C12 16.1326 12.2209 15.3167 12.6095 14.6057L8.68218 18.533L4.84975 19.2995C4.15003 19.4394 3.53311 18.8225 3.67305 18.1228ZM15.5 15.3742C15.5 14.9875 15.9202 14.7472 16.2535 14.9433L19.0174 16.5691C19.346 16.7624 19.346 17.2377 19.0174 17.431L16.2535 19.0568C15.9202 19.2529 15.5 19.0125 15.5 18.6258V15.3742Z" fill="#858585"/>
<path d="M17.3442 9.87093L13.1016 5.6283L14.5158 4.21408C15.2968 3.43303 16.5632 3.43303 17.3442 4.21408L18.7585 5.6283C19.5395 6.40935 19.5395 7.67568 18.7585 8.45673L17.3442 9.87093Z" fill="#858585"/>
</svg>

<svg width="24" height="24" fill="none" xmlns="http://www.w3.org/2000/svg" viewBox="0 0 24 24"><path fill-rule="evenodd" clip-rule="evenodd" d="M3.673 18.123l.767-3.833 7.247-7.247 4.243 4.242-1.324 1.325a5 5 0 11-1.996 1.996l-3.928 3.927-3.832.766a1 1 0 01-1.177-1.176zM15.5 15.374a.5.5 0 01.753-.43l2.764 1.625a.5.5 0 010 .862l-2.764 1.626a.5.5 0 01-.753-.431v-3.252z" fill="currentColor"></path><path d="M17.344 9.87l-4.242-4.242 1.414-1.414a2 2 0 012.828 0l1.415 1.414a2 2 0 010 2.829L17.344 9.87z" fill="currentColor"></path></svg>
